images/eye-closed.svg

<svg width="24" height="24" viewBox="0 0 24 24" fill="none" xmlns="http://www.w3.org/2000/svg">
<path d="M2.54062 4.71L3.25063 4L20.0006 20.75L19.2906 21.46L15.9506 18.11C14.5806 18.68 13.0806 19 11.5006 19C6.94062 19 3.00063 16.35 1.14062 12.5C2.11063 10.5 3.63063 8.83 5.50063 7.68L2.54062 4.71ZM11.5006 18C12.7906 18 14.0306 17.77 15.1706 17.34L14.0506 16.21C13.3206 16.71 12.4506 17 11.5006 17C9.00062 17 7.00063 15 7.00063 12.5C7.00063 11.55 7.29063 10.68 7.79063 9.95L6.24062 8.41C4.56627 9.38547 3.1901 10.7997 2.26063 12.5C4.04063 15.78 7.50062 18 11.5006 18ZM20.7406 12.5C18.9606 9.22 15.5006 7 11.5006 7C10.3506 7 9.23063 7.19 8.19062 7.53L7.41062 6.75C8.68062 6.26 10.0606 6 11.5006 6C16.0606 6 20.0006 8.65 21.8606 12.5C20.9519 14.3858 19.5444 15.987 17.7906 17.13L17.0706 16.4C18.6006 15.44 19.8706 14.1 20.7406 12.5ZM11.5006 8C14.0006 8 16.0006 10 16.0006 12.5C16.0006 13.32 15.7806 14.08 15.4006 14.74L14.6606 14C14.8806 13.54 15.0006 13.04 15.0006 12.5C15.0006 11.5717 14.6319 10.6815 13.9755 10.0251C13.3191 9.36875 12.4289 9 11.5006 9C10.9606 9 10.4606 9.12 10.0006 9.34L9.26062 8.6C9.92062 8.22 10.6806 8 11.5006 8ZM8.00063 12.5C8.00063 13.4283 8.36937 14.3185 9.02575 14.9749C9.68213 15.6313 10.5724 16 11.5006 16C12.1706 16 12.7906 15.81 13.3206 15.5L8.50063 10.68C8.19063 11.21 8.00063 11.83 8.00063 12.5Z" fill="black" fill-opacity="0.5"/>
</svg>

<svg width="24" height="24" fill="none" xmlns="http://www.w3.org/2000/svg"><path d="M2.54 4.71L3.25 4 20 20.75l-.71.71-3.34-3.35c-1.37.57-2.87.89-4.45.89-4.56 0-8.5-2.65-10.36-6.5.97-2 2.49-3.67 4.36-4.82L2.54 4.71zM11.5 18c1.29 0 2.53-.23 3.67-.66l-1.12-1.13c-.73.5-1.6.79-2.55.79C9 17 7 15 7 12.5c0-.95.29-1.82.79-2.55L6.24 8.41a10.64 10.64 0 00-3.98 4.09C4.04 15.78 7.5 18 11.5 18zm9.24-5.5C18.96 9.22 15.5 7 11.5 7c-1.15 0-2.27.19-3.31.53l-.78-.78C8.68 6.26 10.06 6 11.5 6c4.56 0 8.5 2.65 10.36 6.5a11.47 11.47 0 01-4.07 4.63l-.72-.73c1.53-.96 2.8-2.3 3.67-3.9zM11.5 8C14 8 16 10 16 12.5c0 .82-.22 1.58-.6 2.24l-.74-.74A3.5 3.5 0 0010 9.34l-.74-.74c.66-.38 1.42-.6 2.24-.6zM8 12.5a3.5 3.5 0 003.5 3.5c.67 0 1.29-.19 1.82-.5L8.5 10.68c-.31.53-.5 1.15-.5 1.82z" fill="#000" fill-opacity=".5"/></svg>
